img/icon/icon_2.svg

<svg height="43" width="43" xmlns="http://www.w3.org/2000/svg"><path d="m42.283 18.633h-.845l-1.319-6.593c-.068-.334-.362-.574-.702-.574h-8.6c-.024 0-.045.014-.069.016-.066.005-.131.02-.194.043-.029.013-.058.026-.085.042-.058.034-.113.076-.16.126-.013.014-.033.02-.046.036s-.009.021-.015.03c-.042.059-.075.123-.097.192-.011.023-.022.047-.03.072-.003.006-.005.011-.007.017l-1.318 6.593h-10.163v-.716c0-1.187-.962-2.15-2.15-2.15v-1.433h5.734c1.187 0 2.15-.964 2.15-2.151v-10.033c0-1.187-.963-2.15-2.15-2.15h-17.2c-1.188 0-2.15.963-2.15 2.15v10.033c0 1.187.962 2.151 2.15 2.151h5.733v1.433c-1.187 0-2.15.963-2.15 2.15v.716h-7.883c-.396 0-.717.321-.717.717v22.933c0 .396.321.717.717.717h2.866c.396 0 .717-.321.717-.717v-5.016h34.4v5.016c0 .396.321.717.717.717h2.866c.396 0 .717-.321.717-.717v-22.933c0-.396-.321-.717-.717-.717zm-3.454-5.733 1.147 5.733h-7.139l-1.146-5.733zm-8.094 3.345.597 2.388h-1.075zm-26.435-14.095c0-.396.321-.717.717-.717h17.2c.395 0 .716.321.716.717v7.883h-18.633zm0 10.033v-.717h18.633v.717c0 .396-.321.717-.716.717h-17.2c-.396 0-.717-.321-.717-.717zm7.883 2.151h2.867v1.433h-2.867zm-2.15 3.583c0-.396.321-.717.717-.717h5.733c.396 0 .717.321.717.717v.716h-7.167zm-5.733 17.917v-12.9h34.4v12.9zm37.267 5.733h-1.434v-19.351c0-.395-.321-.716-.716-.716h-35.834c-.395 0-.716.321-.716.716v19.351h-1.434v-21.5h40.134z" fill="#cfb579" fill-rule="evenodd"/></svg>

<svg 
 xmlns="http://www.w3.org/2000/svg"
 xmlns:xlink="http://www.w3.org/1999/xlink"
 width="43px" height="43px">
<path fill-rule="evenodd"  fill="rgb(207, 181, 121)"
 d="M42.283,18.633 L41.438,18.633 L40.119,12.040 C40.051,11.706 39.757,11.466 39.417,11.466 L30.817,11.466 C30.793,11.466 30.772,11.480 30.748,11.482 C30.682,11.487 30.617,11.502 30.554,11.525 C30.525,11.538 30.496,11.551 30.469,11.567 C30.411,11.601 30.356,11.643 30.309,11.693 C30.296,11.707 30.276,11.713 30.263,11.729 C30.250,11.745 30.254,11.750 30.248,11.759 C30.206,11.818 30.173,11.882 30.151,11.951 C30.140,11.974 30.129,11.998 30.121,12.023 C30.118,12.029 30.116,12.034 30.114,12.040 L28.796,18.633 L18.633,18.633 L18.633,17.917 C18.633,16.730 17.671,15.767 16.483,15.767 L16.483,14.334 L22.217,14.334 C23.404,14.334 24.367,13.370 24.367,12.183 L24.367,2.150 C24.367,0.963 23.404,-0.000 22.217,-0.000 L5.017,-0.000 C3.829,-0.000 2.867,0.963 2.867,2.150 L2.867,12.183 C2.867,13.370 3.829,14.334 5.017,14.334 L10.750,14.334 L10.750,15.767 C9.563,15.767 8.600,16.730 8.600,17.917 L8.600,18.633 L0.717,18.633 C0.321,18.633 0.000,18.954 0.000,19.350 L0.000,42.283 C0.000,42.679 0.321,43.000 0.717,43.000 L3.583,43.000 C3.979,43.000 4.300,42.679 4.300,42.283 L4.300,37.267 L38.700,37.267 L38.700,42.283 C38.700,42.679 39.021,43.000 39.417,43.000 L42.283,43.000 C42.679,43.000 43.000,42.679 43.000,42.283 L43.000,19.350 C43.000,18.954 42.679,18.633 42.283,18.633 ZM38.829,12.900 L39.976,18.633 L32.837,18.633 L31.691,12.900 L38.829,12.900 ZM30.735,16.245 L31.332,18.633 L30.257,18.633 L30.735,16.245 ZM4.300,2.150 C4.300,1.754 4.621,1.433 5.017,1.433 L22.217,1.433 C22.612,1.433 22.933,1.754 22.933,2.150 L22.933,10.033 L4.300,10.033 L4.300,2.150 ZM4.300,12.183 L4.300,11.466 L22.933,11.466 L22.933,12.183 C22.933,12.579 22.612,12.900 22.217,12.900 L5.017,12.900 C4.621,12.900 4.300,12.579 4.300,12.183 ZM12.183,14.334 L15.050,14.334 L15.050,15.767 L12.183,15.767 L12.183,14.334 ZM10.033,17.917 C10.033,17.521 10.354,17.200 10.750,17.200 L16.483,17.200 C16.879,17.200 17.200,17.521 17.200,17.917 L17.200,18.633 L10.033,18.633 L10.033,17.917 ZM4.300,35.834 L4.300,22.934 L38.700,22.934 L38.700,35.834 L4.300,35.834 ZM41.567,41.567 L40.133,41.567 L40.133,22.216 C40.133,21.821 39.812,21.500 39.417,21.500 L3.583,21.500 C3.188,21.500 2.867,21.821 2.867,22.216 L2.867,41.567 L1.433,41.567 L1.433,20.067 L41.567,20.067 L41.567,41.567 Z"/>
</svg>
